assets/icons/standard/portal_roles_and_subordinates.svg

<?xml version="1.0"?><svg xmlns="http://www.w3.org/2000/svg" width="100" height="100" viewBox="0 0 100 100"><path fill="#fff" d="m68 49.1c0 1.1-0.9 2-2 2h-18.6c-1.1 0-2-0.9-2-2v-3c0-1.1 0.9-2 2-2h18.6c1.1 0 2 0.9 2 2v3z m-28.6 0c0 1.1-0.9 2-2 2h-3.4c-1.1 0-2-0.9-2-2v-3c0-1.1 0.9-2 2-2h3.4c1.1 0 2 0.9 2 2v3z m34.4-29.1h-47.6c-3.4 0-6.2 2.8-6.2 6.2v47.6c0 3.4 2.8 6.2 6.2 6.2h47.6c3.4 0 6.2-2.8 6.2-6.2v-47.6c0-3.4-2.8-6.2-6.2-6.2z m-26.4 7.4c0-0.8 0.8-1.4 1.6-1.4h23.4c0.8 0 1.4 0.8 1.4 1.6v3c0 0.8-0.8 1.4-1.6 1.4h-23.4c-0.8 0-1.4-0.8-1.4-1.6v-3z m-8-1.4c1.7 0 3 1.3 3 3s-1.3 3-3 3-3-1.3-3-3 1.3-3 3-3z m-10.4 0c1.7 0 3 1.3 3 3s-1.3 3-3 3-3-1.3-3-3 1.3-3 3-3z m45 46.6c0 0.8-0.8 1.4-1.6 1.4h-4.4v-14.9c0-1.1-0.9-2-2-2h-32c-1.1 0-2 0.9-2 2v14.9h-4.6c-0.8 0-1.4-0.8-1.4-1.6v-33c0-0.8 0.8-1.4 1.6-1.4h45c0.8 0 1.4 0.8 1.4 1.6v33z"></path></svg>

<svg xmlns="http://www.w3.org/2000/svg" x="0px" y="0px"
	 width="100px" height="100px" viewBox="0 0 100 100" enable-background="new 0 0 100 100" xml:space="preserve">
<path fill="#FFFFFF" d="M68,49.1c0,1.1-0.9,2-2,2H47.4c-1.1,0-2-0.9-2-2v-3c0-1.1,0.9-2,2-2H66c1.1,0,2,0.9,2,2V49.1z"/>
<path fill="#FFFFFF" d="M39.4,49.1c0,1.1-0.9,2-2,2H34c-1.1,0-2-0.9-2-2v-3c0-1.1,0.9-2,2-2h3.4c1.1,0,2,0.9,2,2V49.1z"/>
<path fill="#FFFFFF" d="M73.8,20H26.2c-3.4,0-6.2,2.8-6.2,6.2v47.6c0,3.4,2.8,6.2,6.2,6.2h47.6c3.4,0,6.2-2.8,6.2-6.2V26.2
	C80,22.8,77.2,20,73.8,20z M47.4,27.4c0-0.8,0.8-1.4,1.6-1.4h23.4c0.8,0,1.4,0.8,1.4,1.6v3c0,0.8-0.8,1.4-1.6,1.4H48.8
	c-0.8,0-1.4-0.8-1.4-1.6V27.4z M39.4,26c1.7,0,3,1.3,3,3c0,1.7-1.3,3-3,3s-3-1.3-3-3C36.4,27.3,37.7,26,39.4,26z M29,26
	c1.7,0,3,1.3,3,3c0,1.7-1.3,3-3,3s-3-1.3-3-3C26,27.3,27.3,26,29,26z M74,72.6c0,0.8-0.8,1.4-1.6,1.4H68V59.1c0-1.1-0.9-2-2-2H34
	c-1.1,0-2,0.9-2,2V74h-4.6c-0.8,0-1.4-0.8-1.4-1.6v-33c0-0.8,0.8-1.4,1.6-1.4h45c0.8,0,1.4,0.8,1.4,1.6V72.6z"/>
</svg>
